public/svgs/regular/superscript.svg

<svg xmlns="http://www.w3.org/2000/svg" viewBox="0 0 512 512"><!-- Font Awesome Pro 6.0.0-alpha2 by @fontawesome - https://fontawesome.com License - https://fontawesome.com/license (Commercial License) --><path d="M328 112C341.25 112 352 101.25 352 88S341.25 64 328 64H288C279.969 64 272.469 68 268.031 74.688L176 212.734L83.969 74.688C79.531 68 72.031 64 64 64H24C10.75 64 0 74.75 0 88S10.75 112 24 112H51.156L147.156 256L51.156 400H24C10.75 400 0 410.75 0 424S10.75 448 24 448H64C72.031 448 79.531 444 83.969 437.312L176 299.266L268.031 437.312C272.469 444 279.969 448 288 448H328C341.25 448 352 437.25 352 424S341.25 400 328 400H300.844L204.844 256L300.844 112H328ZM488 176H472V24C472 10.75 461.25 0 448 0H408C394.75 0 384 10.75 384 24S394.75 48 408 48H424V176H408C394.75 176 384 186.75 384 200S394.75 224 408 224H488C501.25 224 512 213.25 512 200S501.25 176 488 176Z"/></svg>

<svg xmlns="http://www.w3.org/2000/svg" viewBox="0 0 512 512"><!--! Font Awesome Pro 6.5.1 by @fontawesome - https://fontawesome.com License - https://fontawesome.com/license (Commercial License) Copyright 2023 Fonticons, Inc. --><path d="M472 24c0-8-3.9-15.4-10.5-19.9s-15-5.4-22.4-2.4l-40 16c-12.3 4.9-18.3 18.9-13.4 31.2s18.9 18.3 31.2 13.4l7.1-2.8V176H408c-13.3 0-24 10.7-24 24s10.7 24 24 24h40 40c13.3 0 24-10.7 24-24s-10.7-24-24-24H472V24zM24 64C10.7 64 0 74.7 0 88s10.7 24 24 24H51.2l96 144-96 144H24c-13.3 0-24 10.7-24 24s10.7 24 24 24H64c8 0 15.5-4 20-10.7l92-138 92 138C272.5 444 280 448 288 448h40c13.3 0 24-10.7 24-24s-10.7-24-24-24H300.8l-96-144 96-144H328c13.3 0 24-10.7 24-24s-10.7-24-24-24H288c-8 0-15.5 4-20 10.7l-92 138L84 74.7C79.5 68 72 64 64 64H24z"/></svg>
